X: 72
T: Allah Emrin Tutalım
C: ?
O: Turkey
F: http://compmusic.upf.edu/node/140
N: hicaz--durak--durakevferi--allah_emrin--
N: makam= hicaz
N: form= durak
N: usul= durakevferi = 21/4
M: 21/4
L: 1/16
K: C _7/8B ^f ^c 
Q: 1/4=102
%%MIDI tuningsystem comma53
A8 d4 d8 d6c2  | d4 e4 d4 _1/4B4 =c4 d4 c4  | \
w:  Al lah  em rin   |  tu ta lım    | 
d8 {e}d2=c2 c12 _1/4B4  | A8 d4 d8 d6c2  | 
w:   |  Rah me ti ne   | 
d4 e4 d4 _1/4B4 =c4 d4 c4  | d8 d2=c2 c12 _1/4B4  | \
w:  ba ta lım    |   | 
d8 e4 e8 e8  | e4 e4 e4 e4 g4 f2e2 e2=f2  | 
w:  Bül bül  gi bi   |  ö te lim  a man   | 
e2d2 {e}a4 g2f2 f6ed d8  | e8 =f4 e8 f8  | \
w:  a *  *  man  a *  man    |  Al lah  Al lah   | 
=f4 e2d2 d4 e8 f4 e4  | d4 =c6B2 A4 d8 ^c4  | 
w:  *  *  *  ke rim  *  Al  |  *  lah  *  ra hîm   | 
d2e2 =f2g2 f2e2 d2c2 B2A2 e4 d2c2  | \
w:  Al *  *  *  *  *  *  *  *  *  lah   | 
B4 A4 A12 G4 e2d2  | d2c2 B4 A4 A12 z4  | 
w:  *  *  *  *  di  |  *  *  ye *  lim    | 
A8 d4 d8 d6c2  | d4 e4 d4 _1/4B4 =c4 d4 c4  | \
w:  Al lah  em rin   |  tu ta lım    | 
d8 {e}d2=c2 c12 _1/4B4  | A8 d4 d8 d6c2  | 
w:   |  Rah me ti ne   | 
d4 e4 d4 _1/4B4 =c4 d4 c4  | d8 d2=c2 c12 _1/4B4  | \
w:  ba ta lım    |   | 
d8 e4 e8 e8  | e4 e4 e4 e4 g4 f2e2 e2=f2  | 
w:  Bül bül  gi bi   |  ö te lim  a man   | 
e2d2 {e}a4 g2f2 f6ed d8  | e8 =f4 e8 f8  | \
w:  a *  *  man  a *  man    |  Al lah  Al lah   | 
=f4 e2d2 d4 e8 f4 e4  | d4 =c6B2 A4 d8 ^c4  | 
w:  *  *  *  ke rim  *  Al  |  *  lah  *  ra hîm   | 
d2e2 =f2g2 f2e2 d2c2 B2A2 e4 d2c2  | \
w:  Al *  *  *  *  *  *  *  *  *  lah   | 
B4 A4 A12 G4 e2d2  | d2c2 B4 A4 A12 z4  | 
w:  *  *  *  *  di  |  *  *  ye *  lim    | 
|


